X: 2
T: Sligo Creek
C:Danny Novecka (1988)
R:reel
Z:transcribed to abc by Mary Lou Knack
N:Condensed to 2 staffs by John Chambers
M:C|
L:1/8
K:Bm
de |\
"Bm"f2ef dB~B2 | f2ef df~f2 | "A"a2ed cAAF |\
[1,3 EFAB "F#m"c3e :|[2,4 ABcA "Bm"B2 :|
|: BA |\
"G"GB~B2 Bcde | "D"f2ec defd |\
[1,3 "A"eA (3.A.A.A cAFA | EFAB "F#m"c2BA :|\
[2,4 "A"ea (3.a.a.a faec | ABcA "Bm"B2 :|

%%sep 1 1 500

